public/svgs/twin/anatomy-m3-1.svg

<svg width="32" height="32" viewBox="0 0 32 32" fill="none" xmlns="http://www.w3.org/2000/svg">
<path d="M26.998 16.8643C25.723 16.8197 20.4911 16.0318 19.9186 14.8053C19.5906 14.0854 24.2675 8.16065 24.4111 7.00209C24.5877 5.5311 18.0071 0.89883 16.6486 2.62016C13.8503 6.14628 12.1949 9.30949 10.7453 12.4591C8.95212 16.3229 7.25213 19.9946 3.0565 23.3635C2.89714 23.4921 2.79508 23.6785 2.77254 23.8821C2.75 24.0856 2.80882 24.2899 2.93618 24.4502C3.20399 24.784 9.41787 29.6337 9.84092 29.6705C9.96124 29.6802 10.2911 29.3853 10.3959 29.296C12.0882 27.8593 13.6081 26.2312 14.9254 24.4444C15.5619 23.5983 15.8472 23.2218 16.2566 23.3111C19.546 24.0155 22.6956 25.0693 26.0762 25.4962C26.2582 25.5256 26.4445 25.4855 26.5982 25.3837C27.617 25.4167 28.0091 16.8993 26.998 16.8624V16.8643ZM10.1146 24.0699C8.99675 24.0699 8.09048 23.5576 8.09048 22.9269C8.09048 22.2962 8.99675 21.7838 10.1146 21.7838C11.2324 21.7838 12.1406 22.2962 12.1406 22.9269C12.1406 23.5576 11.2343 24.0699 10.1146 24.0699ZM12.7654 19.1853C11.9426 19.6259 11.0771 19.6045 10.8248 19.1426C10.5725 18.6808 11.0441 17.9433 11.8669 17.5028C12.6898 17.0623 13.5553 17.0836 13.8076 17.5455C14.0598 18.0074 13.5902 18.7429 12.7654 19.1853ZM15.426 21.2113C14.4945 21.2113 13.7377 20.7844 13.7377 20.2566C13.7377 19.7287 14.4926 19.3037 15.426 19.3037C16.3595 19.3037 17.1124 19.7306 17.1124 20.2566C17.1124 20.7825 16.3595 21.2113 15.426 21.2113ZM17.06 15.0188C16.7321 15.8921 16.0684 16.4549 15.5716 16.2686C15.0748 16.0823 14.9486 15.2245 15.2786 14.3493C15.6085 13.4741 16.2702 12.9132 16.7612 13.0976C17.2522 13.282 17.3841 14.1455 17.0581 15.0169L17.06 15.0188ZM16.4779 11.2773C15.5464 11.2773 14.7895 10.8484 14.7895 10.3225C14.7895 9.79659 15.5425 9.36771 16.4779 9.36771C17.4132 9.36771 18.1662 9.79465 18.1662 10.3225C18.1662 10.8504 17.4094 11.2773 16.4779 11.2773ZM18.011 6.49171C18.011 5.96774 18.7678 5.53692 19.7012 5.53692C20.6347 5.53692 21.3896 5.96774 21.3896 6.49171C21.3896 7.01568 20.6424 7.45038 19.7012 7.45038C18.76 7.45038 18.011 7.01956 18.011 6.49365V6.49171ZM18.2594 20.0004C18.0808 19.5017 18.6475 18.8477 19.5285 18.5333C20.4096 18.2189 21.2596 18.3683 21.4381 18.8632C21.6166 19.358 21.05 20.0159 20.1689 20.3303C19.2879 20.6447 18.434 20.4953 18.2594 20.0004ZM22.4433 22.3563C21.5118 22.3563 20.755 21.9313 20.755 21.4054C20.755 20.8795 21.5118 20.4506 22.4433 20.4506C23.3748 20.4506 24.1317 20.8756 24.1317 21.4054C24.1317 21.9352 23.3729 22.3563 22.4433 22.3563Z" fill="current"/>
</svg>

<svg xmlns="http://www.w3.org/2000/svg" width="32" height="32" fill="none" viewBox="0 0 32 32"><path fill="current" d="M26.998 16.864c-1.275-.044-6.507-.832-7.08-2.059-.327-.72 4.35-6.644 4.493-7.803.177-1.47-6.404-6.103-7.762-4.382-2.799 3.526-4.454 6.69-5.904 9.84-1.793 3.863-3.493 7.535-7.688 10.903a.776.776 0 0 0-.12 1.087c.267.334 6.48 5.184 6.904 5.22.12.01.45-.285.555-.374a28.7 28.7 0 0 0 4.53-4.852c.636-.846.921-1.222 1.33-1.133 3.29.704 6.44 1.758 9.82 2.185.182.03.369-.01.522-.112 1.019.033 1.411-8.485.4-8.522zM10.115 24.07c-1.118 0-2.025-.512-2.025-1.143 0-.63.907-1.143 2.025-1.143s2.026.512 2.026 1.143c0 .63-.907 1.143-2.026 1.143m2.65-4.885c-.822.44-1.688.42-1.94-.042s.22-1.2 1.042-1.64 1.688-.42 1.94.043c.253.461-.217 1.197-1.042 1.64m2.661 2.026c-.931 0-1.688-.427-1.688-.954 0-.528.755-.953 1.688-.953.934 0 1.686.427 1.686.953 0 .525-.752.954-1.686.954m1.634-6.192c-.328.873-.992 1.436-1.488 1.25-.497-.187-.623-1.044-.293-1.92s.991-1.436 1.482-1.251c.491.184.623 1.047.297 1.919zm-.582-3.742c-.932 0-1.689-.429-1.689-.954 0-.526.754-.955 1.689-.955s1.688.427 1.688.954c0 .528-.757.955-1.688.955m1.533-4.785c0-.524.757-.955 1.69-.955.934 0 1.689.43 1.689.955s-.748.958-1.689.958-1.69-.43-1.69-.956zM18.259 20c-.178-.498.389-1.152 1.27-1.467.88-.314 1.73-.165 1.91.33.178.495-.389 1.153-1.27 1.467s-1.735.165-1.91-.33m4.184 2.356c-.931 0-1.688-.425-1.688-.95 0-.526.757-.955 1.688-.955.932 0 1.689.425 1.689.954 0 .53-.76.951-1.689.951"/></svg>
